contributed-vectors/xrecorder.svg

<svg xmlns="http://www.w3.org/2000/svg" xml:space="preserve" style="fill-rule:evenodd;clip-rule:evenodd;stroke-linejoin:round;stroke-miterlimit:2" viewBox="0 0 192 192"><path d="M164.5 21.5c0-5.519-4.481-10-10-10h-133c-5.519 0-10 4.481-10 10v133c0 5.519 4.481 10 10 10h133c5.519 0 10-4.481 10-10v-133Z" style="fill:#f8c18c" transform="translate(8 8)"/><path d="M136.397 125.688a3.115 3.115 0 0 1 .832 4.547c-10.116 12.722-25.726 20.896-43.229 20.896-30.428 0-55.131-24.703-55.131-55.131S63.572 40.869 94 40.869c17.503 0 33.113 8.174 43.213 20.908a3.095 3.095 0 0 1-.826 4.519c-.749.486-1.561.989-2.293 1.442a3.115 3.115 0 0 1-4.092-.73C121.534 56.482 108.547 49.751 94 49.751c-25.525 0-46.249 20.724-46.249 46.249 0 25.525 20.724 46.249 46.249 46.249 14.547 0 27.534-6.731 36.015-17.246a3.097 3.097 0 0 1 4.069-.725c.742.437 1.554.94 2.313 1.41Z" style="fill:#fff" transform="matrix(.71416 0 0 .71416 27.309 27.44)"/><path d="m125.445 83.615 26.762-16.564v57.898l-26.762-16.564v5.746a7.051 7.051 0 0 1-7.054 7.053H71.337a5.248 5.248 0 0 1-5.248-5.247V75.764a5.248 5.248 0 0 1 5.248-5.248h47.054a7.054 7.054 0 0 1 7.054 7.054v6.045Zm-29.678 2.708c5.16 0 9.349 4.189 9.349 9.349 0 5.159-4.189 9.348-9.349 9.348-5.159 0-9.348-4.189-9.348-9.348 0-5.16 4.189-9.349 9.348-9.349Z" style="fill:#fff" transform="matrix(.71416 0 0 .71416 27.309 27.44)"/></svg>

<?xml version="1.0" encoding="UTF-8" standalone="no"?>
<!DOCTYPE svg PUBLIC "-//W3C//DTD SVG 1.1//EN" "http://www.w3.org/Graphics/SVG/1.1/DTD/svg11.dtd">
<svg width="100%" height="100%" viewBox="0 0 192 192" version="1.1" xmlns="http://www.w3.org/2000/svg" xmlns:xlink="http://www.w3.org/1999/xlink" xml:space="preserve" xmlns:serif="http://www.serif.com/" style="fill-rule:evenodd;clip-rule:evenodd;stroke-linejoin:round;stroke-miterlimit:2;">
    <g id="Layer1">
        <g transform="matrix(1,0,0,1,8,8)">
            <path d="M164.5,21.5C164.5,15.981 160.019,11.5 154.5,11.5L21.5,11.5C15.981,11.5 11.5,15.981 11.5,21.5L11.5,154.5C11.5,160.019 15.981,164.5 21.5,164.5L154.5,164.5C160.019,164.5 164.5,160.019 164.5,154.5L164.5,21.5Z" style="fill:rgb(248,193,140);"/>
        </g>
        <g transform="matrix(0.714158,0,0,0.714158,27.3088,27.4408)">
            <path d="M136.397,125.688C137.147,126.151 137.665,126.91 137.823,127.777C137.981,128.643 137.766,129.537 137.229,130.235C127.113,142.957 111.503,151.131 94,151.131C63.572,151.131 38.869,126.428 38.869,96C38.869,65.572 63.572,40.869 94,40.869C111.503,40.869 127.113,49.043 137.213,61.777C137.746,62.471 137.961,63.359 137.803,64.22C137.646,65.081 137.132,65.835 136.387,66.296C135.638,66.782 134.826,67.285 134.094,67.738C132.743,68.573 130.98,68.259 130.002,67.008C121.534,56.482 108.547,49.751 94,49.751C68.475,49.751 47.751,70.475 47.751,96C47.751,121.525 68.475,142.249 94,142.249C108.547,142.249 121.534,135.518 130.015,125.003C130.988,123.759 132.741,123.447 134.084,124.278C134.826,124.715 135.638,125.218 136.397,125.688Z" style="fill:white;"/>
        </g>
        <g transform="matrix(0.714158,0,0,0.714158,27.3088,27.4408)">
            <path d="M125.445,83.615L152.207,67.051L152.207,124.949L125.445,108.385L125.445,114.131C125.445,116.001 124.702,117.796 123.379,119.118C122.056,120.441 120.262,121.184 118.391,121.184C106.334,121.184 82.027,121.184 71.337,121.184C68.439,121.184 66.089,118.835 66.089,115.937C66.089,106.21 66.089,85.49 66.089,75.764C66.089,72.866 68.439,70.516 71.337,70.516L118.391,70.516C120.262,70.516 122.056,71.259 123.379,72.582C124.702,73.905 125.445,75.699 125.445,77.57C125.445,80.668 125.445,83.615 125.445,83.615ZM95.767,86.323C100.927,86.323 105.116,90.512 105.116,95.672C105.116,100.831 100.927,105.02 95.767,105.02C90.608,105.02 86.419,100.831 86.419,95.672C86.419,90.512 90.608,86.323 95.767,86.323Z" style="fill:white;"/>
        </g>
    </g>
</svg>
